Adwaita++-Light/panel/24/rto-proxy-tray.svg

<svg height="24" width="24" xmlns="http://www.w3.org/2000/svg">
  <path d="m12 4.0000001c-4.418278.0000001-7.9999999 3.5817219-8 7.9999999 0 4.418278 3.5817219 8 8 8 4.418278 0 8-3.581722 8-8s-3.581722-7.9999999-8-7.9999999zm0 2.4999999 1.544922 3.2910159 3.455078.5292971-2.5 2.5625.589844 3.617187-3.089844-1.708984-3.0898439 1.708984.5898439-3.617187-2.5-2.5625 3.455078-.5292971z" fill="#444"/>
</svg>

<svg xmlns="http://www.w3.org/2000/svg" width="24" height="24" version="1.1">
 <defs>
  <style id="current-color-scheme" type="text/css">
   .ColorScheme-Text { color:#444444; } .ColorScheme-Highlight { color:#4285f4; }
  </style>
 </defs>
 <path style="fill:currentColor" class="ColorScheme-Text" d="M 12,4.0000001 C 7.581722,4.0000002 4.0000001,7.581722 4,12 c 0,4.418278 3.5817219,8 8,8 4.418278,0 8,-3.581722 8,-8 C 20,7.581722 16.418278,4.0000001 12,4.0000001 Z M 12,6.5 13.544922,9.7910159 17,10.320313 14.5,12.882813 15.089844,16.5 12,14.791016 8.9101561,16.5 9.5,12.882813 7,10.320313 10.455078,9.7910159 Z"/>
</svg>
